public/companies/ens-logo-White.svg

<svg width="300" height="94" viewBox="0 0 300 94" fill="none" xmlns="http://www.w3.org/2000/svg">
<path d="M270.119 82.3988C254.461 82.3988 241.388 76.1878 239.652 61.3515C239.598 60.8924 239.929 60.4768 240.387 60.4182L256.452 58.3615C256.955 58.2971 257.401 58.6827 257.446 59.1884C258.09 66.5786 263.318 69.9176 270.521 69.9176C278.158 69.9176 282.044 67.0992 282.044 62.1335C282.044 57.7047 276.953 56.0942 266.367 53.5443C253.503 50.4575 241.711 46.4313 241.711 32.6079C241.711 17.8451 254.709 12.0742 269.181 12.0742C283.656 12.0742 296.063 16.8631 298.154 31.525C298.218 31.9776 297.906 32.3997 297.456 32.4765L281.924 35.1295C281.417 35.2161 280.95 34.8377 280.896 34.3255C280.178 27.4881 275.854 24.4213 269.449 24.4213C263.955 24.4213 259.399 26.4344 259.399 31.1317C259.399 35.6947 264.223 37.3052 273.201 39.3183C285.126 42.0024 300 45.2234 300 61.1941C300 77.299 285.796 82.3988 270.119 82.3988Z" fill="#F6F6F6"/>
<path d="M229.159 18.464C234.519 23.8323 235.189 31.0795 235.189 39.803V80.9511C235.189 81.4268 234.804 81.8125 234.329 81.8125H217.156C216.681 81.8125 216.296 81.4268 216.296 80.9511V41.4134C216.296 35.2399 215.76 32.0189 212.812 29.2006C210.4 26.9191 208.122 26.5164 204.102 26.5164C198.34 26.5164 191.64 30.4084 191.64 44.2318V80.9511C191.64 81.4268 191.255 81.8125 190.78 81.8125H173.741C173.266 81.8125 172.881 81.4268 172.881 80.9511V14.6281C172.881 14.1524 173.266 13.7667 173.741 13.7667H190.646C191.121 13.7667 191.506 14.1524 191.506 14.6281V21.9314C191.506 22.344 192.118 22.4745 192.31 22.1093C196.08 14.936 203.246 12.1562 211.338 12.1562C219.913 12.1562 224.871 14.1694 229.159 18.464Z" fill="#F6F6F6"/>
<path d="M158.035 20.7042C164.541 27.3302 167.818 37.4008 168.094 50.1542C168.104 50.623 167.733 51.0117 167.266 51.0265L119.959 52.5242C119.481 52.5394 119.105 52.9456 119.138 53.4242C119.872 64.1042 125.381 69.4054 135.163 69.0957C143.417 68.8344 147.583 65.0913 148.88 58.5475C148.966 58.1142 149.352 57.7998 149.792 57.8247L166.268 58.7565C166.799 58.7866 167.175 59.2901 167.045 59.8062C163.383 74.3043 152.478 81.8407 135.582 82.3756C125.136 82.7063 116.726 79.6157 110.927 74.2941C104.3 68.193 100.806 59.4415 100.45 48.1737C100.112 37.4425 102.77 28.2277 109.134 21.7153C114.845 15.7607 122.783 12.421 133.23 12.0903C143.81 11.7553 152.22 14.8459 158.035 20.7042ZM133.64 25.1019C128.149 25.2758 124.316 27.0084 121.877 30.4425C120.239 32.6962 119.284 35.4855 118.91 38.712C118.851 39.222 119.265 39.6559 119.777 39.6396L147.737 38.7544C148.244 38.7384 148.628 38.2871 148.549 37.7848C147.962 34.0559 146.778 30.9359 144.478 28.6528C141.848 26.0505 138.462 24.9493 133.64 25.1019Z" fill="#F6F6F6"/>
<path fill-rule="evenodd" clip-rule="evenodd" d="M42.4734 1.5491C42.1294 1.02598 42.7618 0.413402 43.2749 0.772602L64.7575 15.8095C78.2972 25.2867 84.5315 42.208 80.2388 58.1544C79.8987 59.4177 79.5339 60.5235 79.1912 61.45C78.9787 62.0244 78.134 61.9004 78.0914 61.2895C77.7292 56.0972 73.9905 50.1611 71.2769 45.8527C70.7925 45.0835 70.3408 44.3663 69.9467 43.7144C67.3093 39.3512 48.2169 10.2849 42.4734 1.5491ZM14.0286 43.8411L39.7425 1.53062C40.0411 1.03949 39.5038 0.466613 38.9939 0.732504C34.4986 3.07609 22.3693 9.85687 12.8466 19.3674C2.41081 29.7898 10.8445 41.225 13.1082 43.9128C13.3584 44.2098 13.8269 44.1729 14.0286 43.8411ZM39.1069 92.8848C39.4509 93.4079 38.8185 94.0205 38.3054 93.6614L16.8228 78.6244C3.28314 69.1472 -2.95117 52.2259 1.34153 36.2795C1.68156 35.0162 2.04642 33.9104 2.38911 32.9839C2.6016 32.4095 3.44632 32.5335 3.48892 33.1444C3.85109 38.3366 7.58981 44.2728 10.3034 48.5812C10.7878 49.3503 11.2395 50.0676 11.6336 50.7195C14.271 55.0827 33.3634 84.149 39.1069 92.8848ZM41.8398 92.8988L67.5538 50.5883C67.7555 50.2566 68.224 50.2196 68.4742 50.5166C70.7379 53.2044 79.1716 64.6396 68.7358 75.062C59.2131 84.5725 47.0838 91.3533 42.5886 93.6969C42.0786 93.9628 41.5413 93.3899 41.8398 92.8988Z" fill="#F6F6F6"/>
</svg>

<svg viewBox="0 0 300 94" fill="none" xmlns="http://www.w3.org/2000/svg"><path d="M270.119 82.399c-15.658 0-28.731-6.211-30.467-21.047a.846.846 0 0 1 .735-.934l16.065-2.056c.503-.065.949.32.994.826.644 7.39 5.872 10.73 13.075 10.73 7.637 0 11.523-2.819 11.523-7.785 0-4.428-5.091-6.039-15.677-8.589-12.864-3.086-24.656-7.113-24.656-20.936 0-14.763 12.998-20.534 27.47-20.534 14.475 0 26.882 4.79 28.973 19.451a.85.85 0 0 1-.698.952l-15.532 2.653c-.507.086-.974-.292-1.028-.805-.718-6.837-5.042-9.904-11.447-9.904-5.494 0-10.05 2.013-10.05 6.71 0 4.564 4.824 6.174 13.802 8.187C285.126 42.002 300 45.223 300 61.194 300 77.3 285.796 82.4 270.119 82.4m-40.96-63.936c5.36 5.368 6.03 12.616 6.03 21.339v41.148a.86.86 0 0 1-.86.862h-17.173a.86.86 0 0 1-.86-.862V41.413c0-6.173-.536-9.394-3.484-12.212-2.412-2.282-4.69-2.685-8.71-2.685-5.762 0-12.462 3.892-12.462 17.716v36.72a.86.86 0 0 1-.86.86h-17.039a.86.86 0 0 1-.86-.86V14.627a.86.86 0 0 1 .86-.861h16.905a.86.86 0 0 1 .86.861v7.303c0 .413.612.543.804.178 3.77-7.173 10.936-9.953 19.028-9.953 8.575 0 13.533 2.013 17.821 6.308m-71.124 2.241c6.506 6.626 9.783 16.697 10.059 29.45a.856.856 0 0 1-.828.872l-47.307 1.498a.846.846 0 0 0-.821.9c.734 10.68 6.243 15.981 16.025 15.672 8.254-.262 12.42-4.005 13.717-10.549a.89.89 0 0 1 .912-.722l16.476.931c.531.03.907.534.777 1.05-3.662 14.498-14.567 22.035-31.463 22.57-10.446.33-18.856-2.76-24.655-8.082-6.627-6.101-10.121-14.852-10.477-26.12-.338-10.731 2.32-19.946 8.684-26.459 5.711-5.954 13.649-9.294 24.096-9.625 10.58-.335 18.99 2.756 24.805 8.614m-24.395 4.398c-5.491.174-9.324 1.906-11.763 5.34-1.638 2.254-2.593 5.044-2.967 8.27a.838.838 0 0 0 .867.928l27.96-.886a.843.843 0 0 0 .812-.97c-.587-3.728-1.771-6.848-4.071-9.131-2.63-2.602-6.016-3.704-10.838-3.551" fill="#F6F6F6"/><path fill-rule="evenodd" clip-rule="evenodd" d="M42.473 1.55c-.344-.524.289-1.137.802-.777L64.757 15.81c13.54 9.477 19.774 26.398 15.482 42.344a38 38 0 0 1-1.048 3.296c-.212.574-1.057.45-1.1-.16-.362-5.193-4.1-11.129-6.814-15.437-.484-.77-.936-1.487-1.33-2.139-2.638-4.363-21.73-33.43-27.474-42.165M14.03 43.84 39.744 1.53c.298-.492-.24-1.064-.75-.798C34.5 3.076 22.37 9.857 12.848 19.367c-10.436 10.423-2.002 21.858.261 24.546.25.297.719.26.92-.072m25.078 49.044c.344.523-.288 1.135-.802.776L16.823 78.624C3.283 69.147-2.951 52.226 1.342 36.28c.34-1.264.704-2.37 1.047-3.296.213-.575 1.057-.45 1.1.16.362 5.193 4.1 11.129 6.814 15.437.485.77.936 1.487 1.33 2.138 2.638 4.364 21.73 33.43 27.474 42.166m2.733.014 25.714-42.31a.57.57 0 0 1 .92-.072c2.264 2.687 10.698 14.123.262 24.545-9.523 9.51-21.652 16.291-26.147 18.635-.51.266-1.048-.307-.75-.798" fill="#F6F6F6"/></svg>
